svgs/liftoff.svg

<svg width="192" height="192" viewBox="0 0 192 192" fill="none" xmlns="http://www.w3.org/2000/svg">
<path d="M66.0235 128.905V75.8182M66.0235 128.905L44 141.868V105.087C44 100.573 45.7829 96.2415 48.9609 93.0348L66.0235 75.8182M66.0235 128.905H125.976M66.0235 75.8182V59.3058C72.9058 38.7044 79.8443 30.8236 96.6118 22C111.125 30.8372 117.06 37.2368 123.529 51.3554M125.976 128.905V75.8182L143.039 93.0348C146.217 96.2415 148 100.573 148 105.087V141.868L125.976 128.905Z" stroke="black" stroke-width="12" stroke-linecap="round" stroke-linejoin="round"/>
<path d="M108.965 74.595C108.965 81.4124 103.436 86.9421 96.6118 86.9421C89.7876 86.9421 84.2588 81.4124 84.2588 74.595C84.2588 67.7777 89.7876 62.2479 96.6118 62.2479C103.436 62.2479 108.965 67.7777 108.965 74.595Z" stroke="black" stroke-width="12"/>
<path d="M111.294 146.76H79.4823C80.8318 158.918 84.3279 164.042 95.7001 170M80.7059 146.76H112.518C111.168 158.918 107.672 164.042 96.2999 170" stroke="black" stroke-width="12" stroke-linecap="round" stroke-linejoin="round"/>
</svg>

<svg width="192" height="192" viewBox="0 0 192 192" fill="none" xmlns="http://www.w3.org/2000/svg"><path d="M66.023 128.905V75.818m0 53.087L44 141.868v-36.781c0-4.514 1.783-8.846 4.96-12.052l17.063-17.217m0 53.087h59.953M66.023 75.818V59.306C72.906 38.704 79.844 30.824 96.612 22c14.513 8.837 20.448 15.237 26.917 29.355m2.447 77.55V75.818l17.063 17.217A17.122 17.122 0 0 1 148 105.087v36.781l-22.024-12.963Z" stroke="#000" stroke-width="12" stroke-linecap="round" stroke-linejoin="round"/><path d="M108.965 74.595c0 6.817-5.529 12.347-12.353 12.347s-12.353-5.53-12.353-12.347c0-6.817 5.529-12.347 12.353-12.347s12.353 5.53 12.353 12.347Z" stroke="#000" stroke-width="12"/><path d="M111.294 146.76H79.482c1.35 12.158 4.846 17.282 16.218 23.24m-14.994-23.24h31.812c-1.35 12.158-4.846 17.282-16.218 23.24" stroke="#000" stroke-width="12" stroke-linecap="round" stroke-linejoin="round"/></svg>
